images/EQZ.svg

<svg height="250" viewBox="0 0 250 250" width="250" xmlns="http://www.w3.org/2000/svg" xmlns:xlink="http://www.w3.org/1999/xlink"><radialGradient id="a" cx="0" cy="0" gradientTransform="matrix(140.712485 201.890232 -201.890232 140.712485 52.384334 22.557245)" gradientUnits="userSpaceOnUse" r="1"><stop offset="0" stop-color="#00d5ff"/><stop offset=".088894" stop-color="#00d5ff"/><stop offset=".5" stop-color="#3a4aff"/><stop offset="1" stop-color="#7e20ff"/></radialGradient><path d="m-.0976562 125.011719c0 69.035156 55.9609372 125 124.9960942 125 69.035156 0 125-55.964844 125-125 0-69.03125-55.964844-124.996094-125-124.996094-69.035157 0-124.9960942 55.964844-124.9960942 124.996094" fill="url(#a)"/><g fill="#010a24"><path d="m124.832031 97.171875c-37.25 0-67.449219-5.949219-67.449219-13.289063 0-7.339843 30.199219-13.289062 67.449219-13.289062s67.445313 5.949219 67.445313 13.289062c0 7.339844-30.195313 13.289063-67.445313 13.289063"/><path d="m124.832031 137.667969c-37.25 0-67.449219-5.949219-67.449219-13.289063s30.199219-13.289062 67.449219-13.289062 67.445313 5.949218 67.445313 13.289062-30.195313 13.289063-67.445313 13.289063"/><path d="m124.832031 179.460938c-37.25 0-67.449219-5.949219-67.449219-13.289063s30.199219-13.292969 67.449219-13.292969 67.445313 5.953125 67.445313 13.292969-30.195313 13.289063-67.445313 13.289063"/></g></svg>

<svg xmlns="http://www.w3.org/2000/svg" xmlns:xlink="http://www.w3.org/1999/xlink" width="250px" height="250px" viewBox="0 0 250 250" version="1.1">
<defs>
<radialGradient id="radial0" gradientUnits="userSpaceOnUse" cx="0" cy="0" fx="0" fy="0" r="1" gradientTransform="matrix(140.712485,201.890232,-201.890232,140.712485,52.384334,22.557245)">
<stop offset="0" style="stop-color:rgb(0%,83.529413%,100%);stop-opacity:1;"/>
<stop offset="0.088894" style="stop-color:rgb(0%,83.529413%,100%);stop-opacity:1;"/>
<stop offset="0.5" style="stop-color:rgb(22.745098%,29.019609%,100%);stop-opacity:1;"/>
<stop offset="1" style="stop-color:rgb(49.411765%,12.54902%,100%);stop-opacity:1;"/>
</radialGradient>
</defs>
<g id="surface1">
<path style=" stroke:none;fill-rule:nonzero;fill:url(#radial0);" d="M -0.0976562 125.011719 C -0.0976562 194.046875 55.863281 250.011719 124.898438 250.011719 C 193.933594 250.011719 249.898438 194.046875 249.898438 125.011719 C 249.898438 55.980469 193.933594 0.015625 124.898438 0.015625 C 55.863281 0.015625 -0.0976562 55.980469 -0.0976562 125.011719 "/>
<path style=" stroke:none;fill-rule:nonzero;fill:rgb(0.392157%,3.921569%,14.117648%);fill-opacity:1;" d="M 124.832031 97.171875 C 87.582031 97.171875 57.382812 91.222656 57.382812 83.882812 C 57.382812 76.542969 87.582031 70.59375 124.832031 70.59375 C 162.082031 70.59375 192.277344 76.542969 192.277344 83.882812 C 192.277344 91.222656 162.082031 97.171875 124.832031 97.171875 "/>
<path style=" stroke:none;fill-rule:nonzero;fill:rgb(0.392157%,3.921569%,14.117648%);fill-opacity:1;" d="M 124.832031 137.667969 C 87.582031 137.667969 57.382812 131.71875 57.382812 124.378906 C 57.382812 117.039062 87.582031 111.089844 124.832031 111.089844 C 162.082031 111.089844 192.277344 117.039062 192.277344 124.378906 C 192.277344 131.71875 162.082031 137.667969 124.832031 137.667969 "/>
<path style=" stroke:none;fill-rule:nonzero;fill:rgb(0.392157%,3.921569%,14.117648%);fill-opacity:1;" d="M 124.832031 179.460938 C 87.582031 179.460938 57.382812 173.511719 57.382812 166.171875 C 57.382812 158.832031 87.582031 152.878906 124.832031 152.878906 C 162.082031 152.878906 192.277344 158.832031 192.277344 166.171875 C 192.277344 173.511719 162.082031 179.460938 124.832031 179.460938 "/>
</g>
</svg>
